X:1
T:Title
%%score { ( 1 3 ) | ( 2 4 ) }
L:1/8
Q:1/4=100
M:4/4
K:F
V:1 treble nm="Grand Piano"
V:3 treble 
V:2 bass 
V:4 bass 
V:1
 A2 A2 A3 G | z C z A d2 c2 | [Ec]2 [EG]2 [Ec]3 [EA] | [EB]2 [EB]2 A4 | A2 A2 A3 G | %5
w: Aldine~S.~Kieffer * * *|||||
 z C z A d2 c2 | [Ge]2 [Ge]2 [Ff]3 [DGB] | [CFA]2 [B,EG]2 [A,F]4 | [DFA]2 [DFA]2 [DFA]3 [DFA] | %9
w: ||||
 z2 .[EG]2[K:bass] z4 | [F,D]2[K:treble] [A,^CE]2 [A,DF]3 [A,F] | [DFG]2 [D_A]2 [^CE=A]4 | %12
w: |||
 A2 c2 c3 B | AFAc d2 c2 | [Ge]3 [Gc] [Ff]3 [DGB] | [CFA]2 [B,EG]2 F4 | A2 A2 AAA,A, | %17
w: |||||
 [EG][FA][GB]B A2 F2 | c2 c2 ccA,A, |[M:9/8] cc[F=B] B c2 _B3 |[M:4/4] A2 c2 c3 B | AFAc d2 c2 | %22
w: |||||
 [Ge]3 [Gc] [Ff]3 [DGB] |[M:8/4] [CFA]2 [B,EG]2 [A,F]4 z8 |] %24
w: ||
V:2
 [F,CF]2 [F,CF]2 [F,CF]3 [F,B,F] | [F,A,]2 [F,A,]2 [F,B,F]2 [F,A,F]2 | %2
 [C,G,]2 [C,C]2 [C,C]3 [C,C] | [C,C]2 [C,C]2 [F,CF]4 | [F,CF]2 [F,CF]2 [F,CF]3 [F,B,] | %5
 [F,A,]2 [F,A,]2 [F,B,F]2 [F,A,F]2 | [C,C]2 [C,B,]2 [D,A,]3 B,, | C,2 C,2 F,4 | D,2 D,2 D,3 D, | %9
 D,2 ^C,D, A,,2 A,,2 | D,2 A,,2 D,3 D, | B,,2 B,,2 A,,4 | [F,CF]2 [F,A,F]2 [F,A,F]3 [F,G,F] | %13
 .F2 .C2 z4 | [C,B,]3 [C,B,] [D,A,]3 B,, | C,2 C,2 [F,A,]4 | [F,CF]2 [F,CF]2 [F,CF][F,CF]F,F, | %17
 [C,C]2 z[K:treble] G [F,CF]2[K:bass] [F,A,]2 | [F,A,F]2 [F,A,F]2 [F,A,F][F,A,F]F,F, | %19
[M:9/8][K:treble] F .F2 F[K:bass] C,2- [C,C]3 |[M:4/4] [F,CF]2 [F,A,F]2 [F,A,F]3 [F,G,F] | %21
 FA,[F,F]-[F,A,F] [F,B,F]2 [F,A,F]2 | [C,B,]3 [C,B,] [D,A,]3 B,, |[M:8/4] C,2 C,2 F,4 z8 |] %24
V:3
 x8 | F2 F2 z4 | x8 | x8 | x8 | F2 F2 z4 | x8 | x8 | x8 | %9
 [A,DF]2 A,-[A,DF][K:bass] [A,^CE]2 [A,CE]2 | x2[K:treble] x6 | x8 | x8 | x8 | x8 | x8 | x8 | x8 | %18
 x8 |[M:9/8] z3 z E2- E3 |[M:4/4] x8 | x8 | x8 |[M:8/4] x16 |] %24
V:4
 x8 | x8 | x8 | x8 | x8 | x8 | x8 | x8 | x8 | x8 | x8 | x8 | x8 | %13
 F,-[F,A,][F,F]-[F,A,F] [F,B,F]2 [F,A,F]2 | x8 | x8 | x8 | z2 [C,C]2[K:treble] z4[K:bass] | x8 | %19
[M:9/8][K:treble] [F,A,]2 G,- G,[K:bass] G,2 z3 |[M:4/4] x8 | F,2 .C2 z4 | x8 |[M:8/4] x16 |] %24

